X:0
T:The Cairns of Drumderfit
Z:Jack Campin <http://www.campin.me.uk/> version 1.0 September 2001
C:Geo. S. McLennan
S:G.S. McLennan, Highland Bagpipe Music book 1, 1929
B:NLS MH.s.234
R:Slow March
M:4/2
L:1/8
Q:1/2=48
K:Hp
{d}B|{gef}e4   {A}e3f  {gf}g4  {ag}a3g   |{afg}f4   {g}e3d       {gBd}B4 {G}A3{d}B|\
     {gef}e4   {A}e3f  {gf}g4 {afg}f3e   |{Gdc}d4 {gBd}B3{G}A    {gAd}A4 {e}G3B   |
     {Gdc}d4   {g}e3d {gBd}B4 {Gdc}d3e   | {gf}g4 {afg}f3d       {gef}e4 {A}e3f   |\
      {gf}g4  {ag}a3g {afg}f4   {g}e3d   |{gBd}B4   {g}e3f       {gBd}B4 {G}A3   ||
{d}B|{gef}e4 {gde}d3B {Gdc}d4 {gBd}B3{G}A|  {e}G4 {gBd}B3{G}A    {gAd}A4 {e}G3B   |\
     {Gdc}d4 {gdc}d3e  {gf}g4   {a}f3g   | {ag}a4   {f}g3f       {gef}e4 {g}A3{d}B|
     {gef}e4 {gde}d3B {Gdc}d4 {gBd}B3{G}A|  {g}B4 {GdG}B2{Gdc}d2 {gef}e4 {A}e3f   |\
      {gf}g4  {ag}a3g {afg}f4   {g}e3d   |{gBd}B4   {g}e3d       {gBd}B4 {G}A3   |]
